libs/ui/packages/crypto-icons/src/svg/SCALE.svg

<svg width="24" height="24" viewBox="0 0 24 24" fill="none" xmlns="http://www.w3.org/2000/svg">
<path d="M12.0433 12.0012L10.1161 15.3393H6.26777L4.3418 12.0034L6.26777 8.66748H10.1186L12.0433 12.0012Z" fill="white"/>
<path d="M10.9502 15.82L12.8743 19.1528H16.7263L18.6523 15.8169L16.7263 12.481H12.878L10.9502 15.82Z" fill="white"/>
<path d="M16.7266 11.5209H12.8758L10.9492 8.18402L12.8746 4.84912H16.7266L18.6526 8.18503L16.7266 11.5209Z" fill="white"/>
</svg>

<svg xmlns="http://www.w3.org/2000/svg" width="24" height="24" viewBox="0 0 24 24" fill="none"><path fill="#fff" d="m12.043 12.001-1.927 3.338H6.268l-1.926-3.336 1.926-3.336h3.85zM10.95 15.82l1.924 3.333h3.852l1.926-3.336-1.926-3.336h-3.848zm5.777-4.3h-3.851l-1.927-3.336 1.926-3.335h3.852l1.926 3.336z"/></svg>
